X:628
T:The Roman Reel
C:Ashover Book, c. 1764
M:2/2
L:1/4
S:Colin Hume's website,  colinhume.com  - chords can also be printed below the stave.
Q:1/2=120
K:A
P:A
|:e | "A"e3/A/ "/"a3/e/ | "D"f3/e/ "/"d3/c/ | "E7"B3/c/ "/"d3/e/ | "A"c3/B/ "/"A3/e/ |\
"A"e3/A/ "/"a3/e/ | "D"f3/e/ "/"d3/c/ | "E7"B3/d/ "/"c3/B/ | "A"A2- "/"A :|
P:B
|:e | "E7"B3/d/ "A"c3/e/ | "E7"d3/c/ "/"B3/c/ | "A"c3/e/ "E7/G#"d3/f/ | "A"e3/d/ "/"c3/e/ |\
"A"e3/c/ "/"a3/e/ | "D"f3/e/ "/"d3/c/ | "E7"B3/d/ "/"c3/B/ | "A"A2- "/"A :|

